X:1
T:Do Re Mi
T:Do Re Mi
%%score { 1 | 2 }
L:1/8
M:4/4
K:C
V:1 treble nm="Piano" snm="Pno."
V:2 bass 
V:1
 c3 d e z2 c | e2 c2 e4 | d3 e ffed | f8 | e3 f g3 e | g2 e2 g4 | f3 g aagf | a8 | g3 c defg | a8 | %10
 a3 d e^fga | b8 | b3 e ^f^gab | c'6 c'b | a2 f2 b2 g2 | c'2 g2 e2 c2 | cdef gabc' | %17
 .c'2 .g2 .c'4 |] %18
V:2
 [C,E,G,]8 | [C,E,G,]8 | [D,F,A,]8 | [D,F,A,]8 | [C,E,G,]8 | [C,E,G,]8 | [C,F,A,]8 | [C,F,A,]8 | %8
 [C,E,G,]8 | [C,F,A,]8 | [D,^F,A,]8 | [D,G,B,]8 | [E,^G,B,]8 | [C,E,A,]8 | [C,F,A,]4 [D,G,B,]4 | %15
 [C,E,G,]8 | C,D,E,F, G,A,B,C | .C2 .G,2 .C,4 |] %18

